!!!!SEGMENT: pl-sa--228-a-vi-32--006_luna-georgius--litania-ex-d-mater-christi.krn
!!!cenid: 17xx:451
!!!COM: Luna, Georgius
!!!COM-rismID: pe41010079
!!!CDT:
!!!CNT:
!!!OPR: Litania ex D
!!!OTL: Mater Christi
!!!OMV: 006
!!!PDT:
!!!AGN: Sacred; Mass
!!!SMS-siglum: PL-SA
!!!SMS-shelfmark: 228/A VI 32
!!!SMS-shelfwork: 001-006 M
!!!SMS-variant: Violino Primo: PL-SA 228/A VI 32:11
!!!SMS-altvar: Violino Imo: PL-SA 228/A VI 32:29
!!!NIFC-rismSourceID: 1001068968
!!!NIFC-islandoraID:
!!!URL-pdf-islandora:
!!!URL-scan: https://bc.bdsandomierz.pl/dlibra/publication/1604/edition/1572/content @EN{Scan on Cyfrowa Biblioteka Diecezjalna w Sandomierzu} @PL{Skany w portalu Cyfrowa Biblioteka Diecezjalna w Sandomierzu}
!!!ONB-nifc: UWAGA: części Litanii: Sinfonia, Kyrie, Pater de caelis, Sancta trinitas, Sancta Maria, Mater Christi, Mater amabilis, Virgo prudentissima, Speculum iustitiae, Rosa mistica, Salus infirmorum, Regina angelorum, Agnus Dei
!!!AIN: 3 empty 1 tenor 2 violn 1 vox
!!!key:
**kern	**kern	**kern	**kern	**text	**kern	**text	**kern	**kern
*part7	*part6	*part5	*part4	*part4	*part3	*part3	*part2	*part1
*	*group3	*group3	*group2	*	*group2	*	*group1	*group1
*staff7	*staff6	*staff5	*staff4	*staff4	*staff3	*staff3	*staff2	*staff1
*Iempty	*Ivioln	*Ivioln	*Itenor	*	*Ivox	*	*Iempty	*Iempty
*I"Fondamemto	*I"Violino Secundo	*I"Violino Primo	*I"Tenore	*	*I"Canto	*	*I"Clarino Socundo	*I"Clarino Primo
*I'b	*I'vl 2	*I'vl 1	*I'T	*	*I'S	*	*I'clno 2	*I'clno 1
*clefF4	*clefG2	*clefG2	*clefC4	*	*clefC1	*	*clefG2	*clefG2
*	*	*	*	*	*	*	*ITrd-1c-2	*ITrd-1c-2
*k[f#c#]	*k[f#c#]	*k[f#c#]	*k[f#c#]	*	*k[f#c#]	*	*k[f#c#]	*k[f#c#]
*D:	*D:	*D:	*D:	*	*D:	*	*D:	*D:
*M3/4	*M3/4	*M3/4	*M3/4	*	*M3/4	*	*M3/4	*M3/4
=1	=1	=1	=1	=1	=1	=1	=1	=1
*	*	*	*2\right	*	*	*	*	*
!	!	!	!LO:TX:a:t=P:problem=krzyżyki c# F#	!	!LO:TX:a:t=P:problem=krzyżyki cc# f#	!	!	!
!LO:TX:a:t=Allo	!LO:TX:a:t=Allo	!LO:TX:b:t=Mater Christi	!	!	!	!	!LO:TX:a:t=Allo	!LO:TX:a:t=Allo
!LO:TX:b:t=Mater Christi	!LO:TX:b:t=Mater Christi	!LO:TX:a:t=Allo&colon;	!LO:TX:a:t=Allo	!	!	!	!LO:TX:b:t=Mater Christi	!LO:TX:b:t=Mater Christi
4d\	4a/	4ff#\	2A\	Ma-	(4ff#\	Ma-	4dd\	4ff#\
4c#\	4a/	4ee\	.	.	4ee\)	.	4ee\	4gg\
4B\	4ff#\	4dd\	4f#\	-ter	4dd\	-ter	4dd\	4ff#\
=2	=2	=2	=2	=2	=2	=2	=2	=2
.	.	8qqdd/	.	.	.	.	.	.
*	*2\right	*	*	*	*2\right	*	*	*
4A\	2ee\	2cc#\	2e\	Chris-	2cc#\	Chris-	4a/	4ee\
4G\	.	.	.	.	.	.	4a/	4ee\
4F#\	4ff#\	4dd\	4f#\	-ti	4dd\	-ti	4dd\	4ff#\
=3	=3	=3	=3	=3	=3	=3	=3	=3
!	!	!LO:TUP:a:problem=klamra łukowa, kropka zamiast numeru	!	!	!LO:TUP:a:problem=klamra łukowa, kropka zamiast numeru	!	!	!
4E\	4cc#\	12ee\L	4c#\	o-	12ee\L	o-	4a/	4ee\
.	.	12ff#\	.	.	12ff#\	.	.	.
.	.	12gg\J	.	.	12gg\J	.	.	.
4C#/	4ee\	4a/	4e\	-ra	4a\	-ra	4a/	4ee\
4AA/	4ee\	4gg\	4e\	pro	4gg\	pro	4a/	4ee\
=4	=4	=4	=4	=4	=4	=4	=4	=4
4D\	8dd\L	8ff#\L	8d\L	no-	8ff#\L	no-	4dd\	4ff#\
.	8ee\J	8ee\J	8e\J	.	8ee\J	.	.	.
4F#\	4ff#\	4dd\	4f#\	-bis	4dd\	-bis	4dd\	4ff#\
4A\	4cc#\	4ee\	4c#\	Ma-	4ee\	ma-	4a/	4ee\
=5	=5	=5	=5	=5	=5	=5	=5	=5
8D\L	16dd\LL	16ff#\LL	8d\	-ter	8ff#\	-ter	4dd\	4ff#\
.	16ff#\	16ddd\	.	.	.	.	.	.
8E\	16ff#\	16ddd\	8d\	di-	8ff#\	di-	.	.
.	16ff#\JJ	16ddd\JJ	.	.	.	.	.	.
*	*	*tremolo	*	*	*	*	*	*
*	*tremolo	*	*	*	*	*	*	*
8F#\	16ff#\LL	16ddd\LL	4d\	-vi-	4ff#\	-vi-	8dd\L	8ff#\L
.	16ff#\	16ddd\	.	.	.	.	.	.
8E\	16ff#\	16ddd\	.	.	.	.	8dd\	8ff#\
.	16ff#\JJ	16ddd\JJ	.	.	.	.	.	.
!	!	!	!LO:SIC:l:s=ae:v	!	!LO:SIC:l:s=ae:v	!	!	!
8F#\	16ff#\LL	16ddd\LL	4d\	-ne	4ff#\	-ne	8dd\	8ff#\
.	16ff#\	16ddd\	.	.	.	.	.	.
8G\J	16ff#\	16ddd\	.	.	.	.	8dd\J	8ff#\J
.	16ff#\JJ	16ddd\JJ	.	.	.	.	.	.
*	*Xtremolo	*Xtremolo	*	*	*	*	*	*
!	!	!	!LO:LB:g=original	!	!	!	!	!
=6	=6	=6	=6	=6	=6	=6	=6	=6
8A\L	8ee\L	8ccc#\L	8c#\L	gra-	8ee\L	gra-	4a/	8ee\L
8B\	8dd\	8bb\	8d\	.	8dd\	.	.	8ee\
8c#\	8cc#\	8aa\	8e\	.	8cc#\	.	8a/L	8ee\
8A\	8b\	8gg\	8c#\J	.	8b\J	.	8a/	8ee\
8B\	8a\	8ff#\	8d\L	-ti-	8a\L	-ti-	8a/	8ee\J
!	!	!	!	!	!	!	!	!LO:TX:a:t=P:problem=takt niepełny
8c#\J	8g\J	8ee\J	8e\J	.	8g\J	.	8a/J	8ryy
=7	=7	=7	=7	=7	=7	=7	=7	=7
!	!LO:TX:a:t=P:problem=mixed beam	!	!LO:SIC:l:s=ae:v	!	!LO:SIC:l:s=ae:v	!	!	!
8d\L	16f#/LL	16dd\LL	8f#\	-e	8f#/	-e	4dd\	4ff#\
.	16ff#\	16ddd\	.	.	.	.	.	.
8E\	16ff#\	16ddd\	8d\	ma-	8ff#\	ma-	.	.
.	16ff#\JJ	16ddd\JJ	.	.	.	.	.	.
*	*tremolo	*tremolo	*	*	*	*	*	*
8F#\	16ff#\LL	16ddd\LL	4d\	-ter	4ff#\	-ter	8dd\L	8ff#\L
.	16ff#\	16ddd\	.	.	.	.	.	.
8E\	16ff#\	16ddd\	.	.	.	.	8dd\	8ff#\
.	16ff#\JJ	16ddd\JJ	.	.	.	.	.	.
8F#\	16ff#\LL	16ddd\LL	4d\	pu-	4ff#\	pu-	8dd\	8ff#\
.	16ff#\	16ddd\	.	.	.	.	.	.
8G\J	16ff#\	16ddd\	.	.	.	.	8dd\J	8ff#\J
.	16ff#\JJ	16ddd\JJ	.	.	.	.	.	.
*	*Xtremolo	*Xtremolo	*	*	*	*	*	*
=8	=8	=8	=8	=8	=8	=8	=8	=8
8A\L	8ee\L	8ccc#\L	8c#\L	-ris-	8ee\L	-ris-	4a/	4ee\
8B\	8dd\	8bb\	8d\	.	8dd\	.	.	.
8c#\	8cc#\	8aa\	8e\	.	8cc#\	.	8a/L	8ee\L
8A\	8b\	8gg\	8c#\J	.	8b\J	.	8a/	8ee\
8B\	8a\	8ff#\	8d\L	-si-	8a\L	-si-	8a/	8ee\
8c#\J	8g\J	8ee\J	8e\J	.	8g\J	.	8a/J	8ee\J
!	!	!	!	!	!LO:LB:g=original	!	!	!
=9	=9	=9	=9	=9	=9	=9	=9	=9
!	!	!LO:TX:a:t=P:problem=mixed beam	!	!	!	!	!	!
8D/L	16f#/LL	16dd\LL	8d\	-ma	8f#/	-ma	8dd\L	8ff#\L
.	16d/	16d/	.	.	.	.	.	.
8C#/J	16a/	16dd\	8A\	Ma-	8dd\	ma-	8dd\	8dd\
.	16a/JJ	16dd\JJ	.	.	.	.	.	.
*	*tremolo	*tremolo	*	*	*	*	*	*
8D\L	16a/LL	16dd\LL	8A\	-ter	8dd\	-ter	8dd\	8dd\
.	16a/	16dd\	.	.	.	.	.	.
8E\	16a/	16dd\	8A\	cas-	8dd\	cas-	8dd\	8dd\
.	16a/JJ	16dd\JJ	.	.	.	.	.	.
8F#\	16a/LL	16dd\LL	8A\	-tis-	8dd\	-tis-	8dd\	8dd\
.	16a/	16dd\	.	.	.	.	.	.
8D\J	16a/	16dd\	8A\	-si-	8dd\	-si-	8dd\J	8dd\J
.	16a/JJ	16dd\JJ	.	.	.	.	.	.
*	*Xtremolo	*Xtremolo	*	*	*	*	*	*
=10	=10	=10	=10	=10	=10	=10	=10	=10
!	!	!LO:TX:a:t=P:problem=mixed beam	!	!	!	!	!	!
8G\L	16g/LL	16b\LL	4G/	-ma	4b\	-ma	4dd\	4dd\
.	16G/	16G/	.	.	.	.	.	.
8F#\	16G/	16G/	.	.	.	.	.	.
.	16G/JJ	16G/JJ	.	.	.	.	.	.
*	*tremolo	*tremolo	*	*	*	*	*	*
8G\	16G/LL	16G/LL	4r	.	4r	.	4r	4r
.	16G/	16G/	.	.	.	.	.	.
8A\	16G/	16G/	.	.	.	.	.	.
.	16G/JJ	16G/JJ	.	.	.	.	.	.
8B\	16G/LL	16G/LL	4r	.	4r	.	4r	4r
.	16G/	16G/	.	.	.	.	.	.
8G\J	16G/	16G/	.	.	.	.	.	.
.	16G/JJ	16G/JJ	.	.	.	.	.	.
*	*Xtremolo	*Xtremolo	*	*	*	*	*	*
!	!	!LO:LB:g=original	!	!	!	!	!	!
=11	=11	=11	=11	=11	=11	=11	=11	=11
!	!	!LO:TX:a:t=P:problem=mixed beam	!	!	!	!	!	!
8E\L	16d/LL	16e/LL	4B\	Ma-	4ee\	Ma-	8ee\L	8ee\L
.	16b/	16ee\	.	.	.	.	.	.
8D#X\	16b/	16ee\	.	.	.	.	8ee\	8ee\
.	16b/JJ	16ee\JJ	.	.	.	.	.	.
*	*tremolo	*tremolo	*	*	*	*	*	*
8E\	16b/LL	16ee\LL	8B\	-ter	8ee\	-ter	8ee\	8ee\
.	16b/	16ee\	.	.	.	.	.	.
8F#\	16b/	16ee\	8B\	in-	8ee\	in-	8ee\	8ee\
.	16b/JJ	16ee\JJ	.	.	.	.	.	.
8G#X\	16b/LL	16ee\LL	8B\	-vi-	8ee\	-vi-	8ee\	8ee\
.	16b/	16ee\	.	.	.	.	.	.
8E\J	16b/	16ee\	8B\	-o-	8ee\	-o-	8ee\J	8ee\J
.	16b/JJ	16ee\JJ	.	.	.	.	.	.
*	*Xtremolo	*Xtremolo	*	*	*	*	*	*
=12	=12	=12	=12	=12	=12	=12	=12	=12
!	!	!LO:TX:a:t=P:problem=mixed beam	!	!	!	!	!	!
8A\L	16a/LL	16cc#\LL	4A\	-la-	4cc#\	-la-	4a/	4ee\
.	16A/	16A/	.	.	.	.	.	.
8G#X\	16A/	16A/	.	.	.	.	.	.
.	16A/JJ	16A/JJ	.	.	.	.	.	.
*	*tremolo	*tremolo	*	*	*	*	*	*
8A\	16A/LL	16A/LL	4A\	-ta	4cc#\	-ta	4r	4r
.	16A/	16A/	.	.	.	.	.	.
8B\	16A/	16A/	.	.	.	.	.	.
.	16A/JJ	16A/JJ	.	.	.	.	.	.
8c#\	16A/LL	16A/LL	4r	.	4r	.	4r	4r
.	16A/	16A/	.	.	.	.	.	.
8A\J	16A/	16A/	.	.	.	.	.	.
.	16A/JJ	16A/JJ	.	.	.	.	.	.
*	*tremolo	*Xtremolo	*	*	*	*	*	*
!	!	!	!	!	!	!	!	!LO:LB:g=original
=13	=13	=13	=13	=13	=13	=13	=13	=13
!	!	!LO:TX:a:t=P:problem=mixed beam	!	!	!	!	!	!
8A\L	16a\LL	16a/LL	4e\	Ma-	4gg\	Ma-	4a/	4ee\
.	16ee\	16gg\	.	.	.	.	.	.
8G#X\	16ee\	16gg\	.	.	.	.	.	.
.	16ee\JJ	16gg\JJ	.	.	.	.	.	.
*	*tremolo	*tremolo	*	*	*	*	*	*
8A\	16ee\LL	16gg\LL	8e\	-ter	8gg\	-ter	8a/L	8ee\L
.	16ee\	16gg\	.	.	.	.	.	.
8B\	16ee\	16gg\	8e\	in-	8gg\	in-	8a/	8ee\
.	16ee\JJ	16gg\JJ	.	.	.	.	.	.
8c#\	16ee\LL	16gg\LL	8e\	-te-	8gg\	-te-	8a/	8ee\
.	16ee\	16gg\	.	.	.	.	.	.
8A\J	16ee\	16gg\	8e\	-me-	8gg\	-me-	8a/J	8ee\J
.	16ee\JJ	16gg\JJ	.	.	.	.	.	.
*	*Xtremolo	*Xtremolo	*	*	*	*	*	*
!LO:LB:g=original	!	!	!LO:LB:g=original	!	!	!	!	!
=14	=14	=14	=14	=14	=14	=14	=14	=14
!	!LO:TX:a:t=P:problem=mixed beam	!LO:TX:a:t=P:problem=mixed beam	!	!	!	!	!	!
8D\L	16dd\LL	16ff#\LL	4d\	-ra-	4ff#\	-ra-	4dd\	4ff#\
.	16d/	16d/	.	.	.	.	.	.
8C#\	16d/	16d/	.	.	.	.	.	.
.	16d/JJ	16d/JJ	.	.	.	.	.	.
*	*tremolo	*tremolo	*	*	*	*	*	*
8D\	16d/LL	16d/LL	4d\	-ta	4ff#\	-ta	4r	4r
.	16d/	16d/	.	.	.	.	.	.
8E\	16d/	16d/	.	.	.	.	.	.
.	16d/JJ	16d/JJ	.	.	.	.	.	.
8F#\	16d/LL	16d/LL	4r	.	4r	.	4r	4r
.	16d/	16d/	.	.	.	.	.	.
8D\J	16d/	16d/	.	.	.	.	.	.
.	16d/JJ	16d/JJ	.	.	.	.	.	.
*	*Xtremolo	*Xtremolo	*	*	*	*	*	*
!	!	!	!	!	!	!	!LO:LB:g=original	!
=15	=15	=15	=15	=15	=15	=15	=15	=15
4D/	16dd\LL|	16dd\LL|	2d\	o-	2ff#\	o-	4dd\	4ff#\
.	(16ff#\	(16ff#\	.	.	.	.	.	.
.	16ee\	16ee\	.	.	.	.	.	.
.	16dd\JJ)	16dd\JJ)	.	.	.	.	.	.
4d\	16dd\LL|	16dd\LL|	.	.	.	.	4dd\	4ff#\
.	(16ff#\	(16ff#\	.	.	.	.	.	.
.	16ee\	16ee\	.	.	.	.	.	.
.	16dd\JJ)	16dd\JJ)	.	.	.	.	.	.
4c#\	16dd\LL|	16dd\LL|	4d\	-ra	4ff#\	-ra	4dd\	4ff#\
.	(16ff#\	(16ff#\	.	.	.	.	.	.
.	16ee\	16ee\	.	.	.	.	.	.
.	16dd\JJ)	16dd\JJ)	.	.	.	.	.	.
=16	=16	=16	=16	=16	=16	=16	=16	=16
4B\	16dd\LL|	16dd\LL|	2d\	o-	2ff#\	o-	4dd\	4ff#\
.	(16ff#\	(16ff#\	.	.	.	.	.	.
.	16ee\	16ee\	.	.	.	.	.	.
.	16dd\JJ)	16dd\JJ)	.	.	.	.	.	.
8A\L	16dd\LL|	16dd\LL|	.	.	.	.	4dd\	4ff#\
.	(16ff#\	(16ff#\	.	.	.	.	.	.
8G\	16ee\	16ee\	.	.	.	.	.	.
.	16dd\JJ)	16dd\JJ)	.	.	.	.	.	.
8F#\	16dd\LL|	16dd\LL|	4d\	-ra	4ff#\	-ra	4dd\	4ff#\
.	(16ff#\	(16ff#\	.	.	.	.	.	.
8D\J	16ee\	16ee\	.	.	.	.	.	.
.	16dd\JJ)	16dd\JJ)	.	.	.	.	.	.
!	!	!	!	!	!LO:LB:g=original	!	!	!
=17	=17	=17	=17	=17	=17	=17	=17	=17
4G\	8gg\L	8gg\L	4B\	pro	4ee\	pro	4a/	4ee\
.	8ee\J	8ee\J	.	.	.	.	.	.
4G\	4b\	4b\	4d\	no-	(4b\	no-	4a/	4ee\
4A\	4cc#t\	4cc#t\	4e\	.	4cc#\)	.	4a/	4ee\
=18	=18	=18	=18	=18	=18	=18	=18	=18
4D/	4dd\	4dd\	4f#\	-bis	4dd\	-bis	4dd\	4ff#\
4r	4d/	4d/	4r	.	4r	.	4r	4r
4r	4r	4r	4r	.	4r	.	4r	4r
==;	==;	==	==	==	==	==	==;	==
*-	*-	*-	*-	*-	*-	*-	*-	*-
!!!system-decoration: [g1][g2][g3]s7
!!!RDF**kern: | = vertical stroke
!!!ENC: Marta Lawrence
!!!END: 2020-10-14
!!!ENC: Kamil Watkowski
!!!END: 2020-05-20
